X:194
T:March of the Chocolate Coloured Aristocracy
R:polka 32 rag
Z:P J Headford
M:4/4
L:1/8
Q:1/4=240
K:G
|:G2G2 GEDE|G6A2|B2Bc BAGF|E6d2|e2fg- gfe2|
d2ed- dBG2|1A2B2 c2^c2|d2D2 E2F2:|2
A2Bd- dBA2|G2d2 e2f2||
|:g2gg- ged2|e6d2|e2ef e2d2|B6d2|e2fg- gfe2|
d2ed- dBG2|1A2B2 c2^c2|d2^d2 e2f2:|2
A2Bd- dBA2|G8||
W:Chocolate-Coloured Aristocracy, from
W:The King of the Cannibal Isles, Drury Lane Pantomime 17th or 18th c

